X:14
T:Montreal. G&D_1811.14
M:6/8
L:1/8
Q:3/8=110
B:Goulding, D’Almaine & Potter 24 CDs, 1811
O:England
A:London
Z:Village Music Project, 1999, Chris Partington
W:1st Cu lead down the middle, up again right & left at top.
K:D
A"      '$,"|:{e}dcde2f|d2fa3|(ag.e gf>d)|(fe).B dcA|
dcde2f|d2fa3|ageB2c|d3-d2:|
|:c/d/|e2e dcB|ABc def|g2B fed|cdeA2c|
e2e dcB|ABc def|gag fed|cba"D.C." gf"'$,"e:|

